img/manaSymbols/neon/neon1.svg

﻿<?xml version="1.0" encoding="utf-8"?>
<svg width="714" height="714" viewBox="0 0 714 714" version="1.1" xmlns="http://www.w3.org/2000/svg" xml:space="preserve" style="fill-rule: evenodd; clip-rule: evenodd; stroke-linejoin: round; stroke-miterlimit: 2;" preserveAspectRatio="xMidYMid meet" zoomAndPan="magnify" contentScriptType="application/ecmascript" contentStyleType="text/css">
  <circle cx="300" cy="300" r="300" transform="matrix(1,0,0,1,57,57)" />
  <path d="M300-57C102.966-57-57 102.966-57 300s159.966 357 357 357 357-159.966 357-357S497.034-57 300-57zm0 57c165.575 0 300 134.425 300 300S465.575 600 300 600 0 465.575 0 300 134.425 0 300 0z" style="fill: white;" transform="matrix(1,0,0,1,57,57)" />
  <path d="M347 52v373c0 49 29 48 48 48h16v50H193v-50h20c18 0 47 0 47-48V186c0-47-15-51-47-50h-18V85h20c36 0 57-32 93-33h39z" style="fill: white; fill-rule: nonzero;" transform="matrix(1,0,0,1,57,57)" />
</svg>

<?xml version="1.0" encoding="UTF-8" standalone="no"?>
<!DOCTYPE svg PUBLIC "-//W3C//DTD SVG 1.1//EN" "http://www.w3.org/Graphics/SVG/1.1/DTD/svg11.dtd">
<svg width="714" height="714" viewBox="0 0 714 714" version="1.1" xmlns="http://www.w3.org/2000/svg" xmlns:xlink="http://www.w3.org/1999/xlink" xml:space="preserve" xmlns:serif="http://www.serif.com/" style="fill-rule:evenodd;clip-rule:evenodd;stroke-linejoin:round;stroke-miterlimit:2;">
    <g transform="matrix(1,0,0,1,57,57)">
        <circle cx="300" cy="300" r="300"/>
    </g>
    <g transform="matrix(1,0,0,1,57,57)">
        <path d="M300,-57C102.966,-57 -57,102.966 -57,300C-57,497.034 102.966,657 300,657C497.034,657 657,497.034 657,300C657,102.966 497.034,-57 300,-57ZM300,0C465.575,0 600,134.425 600,300C600,465.575 465.575,600 300,600C134.425,600 0,465.575 0,300C0,134.425 134.425,0 300,0Z" style="fill:white;"/>
    </g>
    <g transform="matrix(1,0,0,1,57,57)">
        <path d="M347,52L347,425C347,474 376,473 395,473L411,473L411,523L193,523L193,473L213,473C231,473 260,473 260,425L260,186C260,139 245,135 213,136L195,136L195,85L215,85C251,85 272,53 308,52L347,52Z" style="fill:white;fill-rule:nonzero;"/>
    </g>
</svg>
